gdscript/src/main/resources/icons/godot_editor/Enum.svg

<svg height="12" viewBox="0 0 16 12" width="16" xmlns="http://www.w3.org/2000/svg"><path d="m3 2c-.5304.0000801-1.0391.21085-1.4141.58594-.37509.37501-.58586.88366-.58594 1.4141v1c-.2652.0000401-.51953.10542-.70703.29297-.18755.18751-.29293.44183-.29297.70703.00004008.2652.10542.51953.29297.70703.18751.18755.44183.29293.70703.29297v1c.0000801.5304.21085 1.0391.58594 1.4141.37501.37509.88366.58586 1.4141.58594h1v-2h-1v-4h1v-2zm3 0v8h4v-2h-2v-1h2v-2h-2v-1h2v-2zm6 0v2h1v4h-1v2h1c.5304-.0000803 1.0391-.21085 1.4141-.58594.37509-.37501.58586-.88366.58594-1.4141v-1c.2652-.0000401.51953-.10542.70703-.29297.18755-.18751.29293-.44183.29297-.70703-.00004-.2652-.10542-.51953-.29297-.70703-.1875-.18755-.44183-.29293-.70703-.29297v-1c-.00008-.5304-.21085-1.0391-.58594-1.4141-.37501-.37509-.88366-.58586-1.4141-.58594z" fill="#e0e0e0"/></svg>

<svg height="12" viewBox="0 0 16 12" width="16" xmlns="http://www.w3.org/2000/svg"><path d="M3 2a2 2 0 0 0-2 2v1a1 1 0 0 0 0 2v1a2 2 0 0 0 2 2h1V8H3V4h1V2zm3 0v8h4V8H8V7h2V5H8V4h2V2zm6 0v2h1v4h-1v2h1a2 2 0 0 0 2-2V7a1 1 0 0 0 0-2V4a2 2 0 0 0-2-2z" fill="#e0e0e0"/></svg>
